public/svg/white/wtc.svg

<svg xmlns="http://www.w3.org/2000/svg" width="32" height="32" viewBox="0 0 32 32"><g fill="none" fill-rule="evenodd"><path fill="#FFF" fill-rule="nonzero" d="M16,32 C7.163444,32 0,24.836556 0,16 C0,7.163444 7.163444,0 16,0 C24.836556,0 32,7.163444 32,16 C32,24.836556 24.836556,32 16,32 Z M18.4137931,13.1663838 L18.4137931,10.6754844 C18.4137931,10.6202687 18.4068777,10.5652613 18.3932017,10.5116941 C18.3008233,10.1498586 17.9263857,9.92986438 17.556872,10.0203233 L14.1085961,10.8644791 C13.8015844,10.9396372 13.5862069,11.2097556 13.5862069,11.5196403 L13.5862069,19.0754747 C13.5862069,19.1306905 13.5931223,19.1856979 13.6067983,19.239265 C13.6991767,19.6011005 14.0736143,19.8210948 14.443128,19.7306359 L16.6896552,19.1806744 L16.6896552,14.6430169 C16.6896552,14.0232476 17.1204102,13.4830107 17.7344336,13.3326946 L18.4137931,13.1663838 Z M10.8275862,13.124176 L10.8275862,10.6754844 C10.8275862,10.6202687 10.8206708,10.5652613 10.8069948,10.5116941 C10.7146164,10.1498586 10.3401788,9.92986438 9.97066509,10.0203233 L6.52238922,10.8644791 C6.2153775,10.9396372 6,11.2097556 6,11.5196403 L6,19.0754747 C6,19.1306905 6.00691541,19.1856979 6.02059138,19.239265 C6.11296981,19.6011005 6.48740739,19.8210948 6.85692112,19.7306359 L8.93103448,19.2228822 L8.93103448,14.6430169 C8.93103448,14.0232476 9.36178948,13.4830107 9.97581293,13.3326946 L10.8275862,13.124176 Z M21.694803,10.8851034 C21.3877913,10.9602615 21.1724138,11.2303799 21.1724138,11.5402646 L21.1724138,19.0960991 C21.1724138,19.1513148 21.1793292,19.2063222 21.1930052,19.2598893 C21.2853836,19.6217249 21.6598212,19.8417191 22.0293349,19.7512602 L25.4776108,18.9071044 C25.7846225,18.8319463 26,18.5618278 26,18.2519432 L26,10.6961087 C26,10.640893 25.9930846,10.5858856 25.9794086,10.5323184 C25.8870302,10.1704829 25.5125926,9.95048869 25.1430789,10.0409476 L21.694803,10.8851034 Z M12.8965517,13.3137913 L10.1430789,13.9878557 C9.83606715,14.0630138 9.62068966,14.3331323 9.62068966,14.6430169 L9.62068966,22.1988514 C9.62068966,22.2540671 9.62760507,22.3090745 9.64128103,22.3626416 C9.73365947,22.7244772 10.108097,22.9444714 10.4776108,22.8540125 L13.9258866,22.0098567 C14.2328984,21.9346986 14.4482759,21.6645802 14.4482759,21.3546955 L14.4482759,20.4156648 C13.7648214,20.5008244 13.108976,20.0737882 12.9377345,19.4030553 C12.9103826,19.295921 12.8965517,19.1859063 12.8965517,19.0754747 L12.8965517,13.3137913 Z M20.4827586,13.3559991 L17.9016996,13.9878557 C17.5946878,14.0630138 17.3793103,14.3331323 17.3793103,14.6430169 L17.3793103,22.1988514 C17.3793103,22.2540671 17.3862258,22.3090745 17.3999017,22.3626416 C17.4922802,22.7244772 17.8667177,22.9444714 18.2362315,22.8540125 L21.6845073,22.0098567 C21.9915191,21.9346986 22.2068966,21.6645802 22.2068966,21.3546955 L22.2068966,20.4039009 L22.1966009,20.4064214 C21.4575734,20.5873391 20.7086982,20.1473507 20.5239414,19.4236796 C20.4965894,19.3165453 20.4827586,19.2065306 20.4827586,19.0960991 L20.4827586,13.3559991 Z"/><path fill="#FFF" d="M12.8965517,13.3137913 L12.8965517,19.0754747 C12.8965517,19.1859063 12.9103826,19.295921 12.9377345,19.4030553 C13.108976,20.0737882 13.7648214,20.5008244 14.4482759,20.4156648 L14.4482759,21.3546955 C14.4482759,21.6645802 14.2328984,21.9346986 13.9258866,22.0098567 L10.4776108,22.8540125 C10.108097,22.9444714 9.73365947,22.7244772 9.64128103,22.3626416 C9.62760507,22.3090745 9.62068966,22.2540671 9.62068966,22.1988514 L9.62068966,14.6430169 C9.62068966,14.3331323 9.83606715,14.0630138 10.1430789,13.9878557 L12.8965517,13.3137913 Z M20.4827586,13.3559991 L20.4827586,19.0960991 C20.4827586,19.2065306 20.4965894,19.3165453 20.5239414,19.4236796 C20.7086982,20.1473507 21.4575734,20.5873391 22.1966009,20.4064214 L22.2068966,20.4039009 L22.2068966,21.3546955 C22.2068966,21.6645802 21.9915191,21.9346986 21.6845073,22.0098567 L18.2362315,22.8540125 C17.8667177,22.9444714 17.4922802,22.7244772 17.3999017,22.3626416 C17.3862258,22.3090745 17.3793103,22.2540671 17.3793103,22.1988514 L17.3793103,14.6430169 C17.3793103,14.3331323 17.5946878,14.0630138 17.9016996,13.9878557 L20.4827586,13.3559991 Z" opacity=".504"/></g></svg>

<svg xmlns="http://www.w3.org/2000/svg" width="32" height="32" viewBox="0 0 32 32"><g fill="#FFF" fill-rule="evenodd"><path fill-rule="nonzero" d="M16 32C7.163 32 0 24.837 0 16S7.163 0 16 0s16 7.163 16 16-7.163 16-16 16zm2.414-18.834v-2.49a.662.662 0 00-.02-.164.69.69 0 00-.837-.492l-3.448.844a.678.678 0 00-.523.656v7.555c0 .056.007.11.02.164a.69.69 0 00.837.492l2.247-.55v-4.538c0-.62.43-1.16 1.044-1.31l.68-.167zm-7.586-.042v-2.449a.662.662 0 00-.021-.163.69.69 0 00-.836-.492l-3.449.844A.678.678 0 006 11.52v7.555c0 .056.007.11.02.164a.69.69 0 00.837.492l2.074-.508v-4.58c0-.62.43-1.16 1.045-1.31l.852-.209zm10.867-2.239a.678.678 0 00-.523.655v7.556a.69.69 0 00.857.655l3.449-.844a.678.678 0 00.522-.655v-7.556a.662.662 0 00-.02-.164.69.69 0 00-.837-.491l-3.448.844zm-8.798 2.429l-2.754.674a.678.678 0 00-.522.655v7.556c0 .055.007.11.02.164a.69.69 0 00.837.491l3.448-.844a.678.678 0 00.522-.655v-.94a1.379 1.379 0 01-1.51-1.012 1.324 1.324 0 01-.041-.328v-5.761zm7.586.042l-2.581.632a.678.678 0 00-.523.655v7.556c0 .055.007.11.02.164a.69.69 0 00.837.491l3.449-.844a.678.678 0 00.522-.655v-.951l-.01.002c-.74.181-1.488-.259-1.673-.982a1.324 1.324 0 01-.041-.328v-5.74z"/><path d="M12.897 13.314v5.761c0 .11.013.22.04.328a1.38 1.38 0 001.511 1.013v.939c0 .31-.215.58-.522.655l-3.448.844a.69.69 0 01-.837-.491.662.662 0 01-.02-.164v-7.556c0-.31.215-.58.522-.655l2.754-.674zm7.586.042v5.74c0 .11.014.22.04.328.186.723.935 1.163 1.674.982l.01-.002v.95a.68.68 0 01-.522.656l-3.449.844a.69.69 0 01-.836-.491.662.662 0 01-.02-.164v-7.556c0-.31.215-.58.522-.655l2.58-.632z" opacity=".504"/></g></svg>
